X: 1
T:Polkett efter John-Erik Mattson
R:polkett
S:Digerberget,  Jmtland
O:Rtan, S: Jmtland
Z:Lennart Sohlman, lta, Sweden
M:2/4
L:1/16
Q:1/4=124
K:D
A2df (af)bf|(af)bf a4|A2df (af)bf|(af)bf g4|\
A2ce b2a2|(Ac)eb a4|g4 B4|A2^GB A4|\
A2df (af)bf|(af)bf a4|A2df (af)bf|(af)bf g4|\
A2ce b2a2|(Ac)eb a4|g4 B2c2|[1d6 z2:|[2d6 (AG)|:\
F3A d2e2|f6 e2|d2c2 B2A2|G6 (GF)|\
E2[Ec][Ec] [E2c2][E2c2]|[E6c6] (Bc)|e2d2 A2AB|\
A6 (AG)|F2FA d2de|f6 e2|d2c2 B2A2|\
G6 (GF)|E2[Ec][Ec] [E2c2][E2c2]|[E6c6] (Bc)|\
e2d2 d3e|[1d6 (AG):|[2 d6 z2 ||\
T:Andrastmma
D2(DF) (AF)(dF)|(AF)(dF) A2(AF)|D2(DF) (AF)(dF)|(AF)(dA) B2(BG)|\
E2(Ac) d2c2|(EA)cd c4|B4G4|E2ED [F4A4]|\
D2(DF) (AF)(dF)|(AF)(dF) A2(AF)|D2(DF) (AF)(dF)|(AF)(dA) B2(BG)|\
E2(Ac) d2c2|(EA)cd c4|B4 G2[G2A2]|[1[F6A6] z2:|[2[F6A6] F2|:\
A,3D F2A2|d2(AF) D2G2|B2A2 G2D2|B,2(DB,) G,2B,2|\
A,2[A,E][A,E] [A,2E2][A,2E2]|([A,6E6] .G2)|G2F2 F2G2|F6 (FE)|\
D2DF A2FA|d6 c2|B2A2 G2D2|(G,B,)(DB,) (G,B,)(DB,)|\
A,2[A,E][A,E] [A,2E2][A,2E2]|([A,6E6] .G2)|G2F2 F3G|\
[1[F6A6] D2:|[2[F6A6] z2|]
